X:24
M:6/8
L:1/8
K:D
d|cde A2G|F2E D2d|c>de A2G|F2E D2A|d2z c2z|
eBc ded|cAE A,2e|a2z g2z|f2z egb|agf edc|d3 D2:|

